X:866
T:Reel 866
M:4/4
K:Emin
L:1/8
F|BcBA G2BG|FADB, EDB,D|B,GBF GAB^c|dBAF GEE:|f|gfef g2bg|fdad fddf|gfgf gbag|fgaf beef|gfga bgeg|fgag fddf|geaf geed|B^def gee|
